!!!OTL: ChangHuar,yaochang xinlihua
!!!ARE: Asia, China,ÿQinghai Haibei
!! I, 234 
!!!SCT: C2077
!!!YEM: Copyright 1995, estate of Helmut Schaffrath.
**kern
*ICvox
*Ivox
!! Mixed meters:  3/4; 4/4; 2/4
*MZ
*k[b-e-a-]
*E-:
{4b-
4a-
4f
=1
4b-
8cc
8ee-
4cc
=2
[2.ff
=3
2.ff]}
=4
{4ff
8ee-
8dd
4cc
=5
4ff
8ee-
8dd
4cc
=6
4b-
4a-
[4f
=7
2f]}
=8
{8r
16f
16f
=9
*M4/4
4b-
2a-
4b-
=10
2cc
8ff
8gg
4cc
=11
*M2/4
8b-
4.b-}
=12
*M3/4
{8b-
8b-
4a-
4f
=13
*M2/4
4b-
8cc
8ee-
=14
4.cc
8ee-
=15
*M3/4
4ff
4ee-
4ff
=16
*M2/4
8ee-
8dd
8cc
8r}
=17
{8ff
8ff
8ff
8ee-
=18
*M4/4
4cc
8ee-
8ff
2cc
=19
8cc
8b-
2.b-}
==
!!!AGN: Shange, Shangshanling
!! Hui Han
!!!ONB: ESAC (Essen Associative Code) Database: SENGANSU
!!!AMT: irregular
!!!AIN: vox
!!!EED: Helmut Schaffrath
!!!EEV: 1.0
*-
!!!ONB: Tied note syntax fixed by Craig Sapp, 2004/05/03/
